X:1
T:Martas ballade
T:Martas ballade (fragment)
T:Ole fra Nordland 
T:Mihail Ippolitov-Ivanov
C:Mihail Ippolitov-Ivanov
%%score 1 { ( 2 4 ) | ( 3 5 ) }
L:1/8
Q:1/4=66
M:4/4
K:D
V:1 treble nm="Sopran"
V:2 treble nm="Piano"
V:4 treble 
V:3 bass 
V:5 bass 
V:1
 z4 z2 ^E2 | F2 F^A B2 Bd | dccA F3 F | B2 AF G2 FD | E4 F2 z ^E | F2 F^A B2 Bd | dccA F3 F | %7
 B2 AF G2 FD | E4 F3 F | ddcc B^G^AF ||[M:3/4] B^G ^A3 B ||[M:4/4] B4- B z z ^E | F2 F^A B2 Bd | %13
 dccA F3 F | B2 AF G2 FD | E4 F3 ^E | F2 F^A B2 Bd | dccA F3 F | B2 AF G2 FD | E4 F3 F | %20
 ddcc B^G^AF ||[M:3/4] B^G ^A3 B ||[M:4/4] B4- B z z ^E | F2 F^A B2 Bd | dccA F3 F | B2 AF G2 FD | %26
 E4 F3 =F | F2 F^A B2 Bd | dccA F3 F | B2 AF G2 FD | E4 F3 F | ddcc B^G^AF |[M:3/4] B^G ^A3 B | %33
[M:4/4] B4- B z z2 | z8 |] %35
V:2
 z8 | z2 [^A,CF]2 [B,FB]2 F2 | (^E4 F4) | (B2 A2) (G2 FD) | [B,E]4 [CF]2- [CF] z | %5
 z2 [^A,CF]2 [B,B]2 [^GB]d | dccA F3 F | B2 A z G2 F z | E4 F4 | F4 F4- ||[M:3/4] F z F4 || %11
[M:4/4] [FB]4- [FB] z z2 | z F2 ^A B d2 f- | f ^e2 c2 A2 F | B g2 f2 e2 d- | d c2 B- B^AF z | %16
 z F2 ^A B B2 d- | d c2 A2 F2 A- | A G2 F2 E2 D- | D C2 B,- B,^A,F, z | F4 F4- ||[M:3/4] F z F4 || %22
[M:4/4] [FB]4- [FB] z z2 | FG^G^A Bcdf- | f^ecA F^GA^A | Bcdf- fedB- | BdcB- B^AF^E | %27
 FG^G^A Bc d2- | dccA F3 F | B2 AF GABF | EDCE F2- F z | F4 F4- |[M:3/4] F z F4 |[M:4/4] [FB]8- | %34
 [FB] z z2 z4 |] %35
V:3
 z8 | z2 E,2 D,2 B,,2 | C,4 D,2 C,=C, | B,,^C,D,D,, G,,A,,B,,B,,, | G,,4 F,,2- F,, z | %5
 z2 [E,,E,]2 [D,,D,]2 [E,,E,]2 | E,3 A, A,2 F,E, | D,E,F, z G,E,D, z | D,2 E,D, C, F,3 | %9
 F,4 F,4- ||[M:3/4] F, z F,4 ||[M:4/4] [B,,F,] z [F,,F,]2 [B,,,B,,] z z2 | %12
 z2 [E,^A,C] z [D,F,B,] z [B,,F,=A,] z | [C,^G,] z [^E,G,C] z [F,A,C] z [D,F,=C] z | %14
 [G,B,] z [D,A,D] z [E,G,B,] z [B,,F,B,] z | [E,G,] z [G,B,] z [F,C] z [F,,F,] z | %16
 z2 [E,^A,C] z [D,F,B,] z [E,B,E] z | [A,E] z [C,A,] z [D,A,] z [F,,D,] z | %18
 [G,,D,] z [D,,D,] z G, z F, z | G, z E, z C, z F, z | F,4 F,4- ||[M:3/4] F, z F,4- || %22
[M:4/4] F, z [F,,F,]2 [B,,,B,,] z z2 | z2 [^A,C] z [F,B,] z [F,B,] z | [C,B,] z B, z A,B, C2 | %25
 B,2 A,C B,CF,A, | G, z B, z C z [F,,F,] z | z2 [E,^A,C] z [D,F,B,] z [B,,F,B,][E,B,] | %28
 [A,,E,A,] z [C,E,A,] z [D,A,] z [F,,D,] z | D,E,F, z E, z F, z | G,F,E,C, C,2 F, z | F,4 F,4- | %32
[M:3/4] F, z F,4- |[M:4/4] F, z [F,,F,] z [B,,,B,,] z F,, z | B,,, z z2 z4 |] %35
V:4
 x8 | x6 D2- | DCCB, A,2 ^A,=E | DEFD B,CDB, | D2 C2 ^A,2- A, x | x4 F2 FE | E4 E2 D=C | %7
 B,^CDC B,CDC | B,2 CB, ^A,2 B,C | D2 ^A,2 B,2 E2 ||[M:3/4] D x E4 ||[M:4/4] E2 DC D x3 | x8 | x8 | %14
 B2 A2 G2 F2 | E4 F z F x | x F2- F2 z ^G z | A z E2 E2 DC | B, z A, z x4 | x8 | D2 ^A,2 B,2 E2 || %21
[M:3/4] D x E4 ||[M:4/4] E2 DC D x3 | z2 F4 FB | B2 ^E2 F3 =E | DEFA G2 FD | E z E z F z F z | %27
 z2 F4 F^G | E4 EDDC | B,CD z B,CD z | B,4 B,^A,F, x | D2 ^A,2 B,2 E2 |[M:3/4] D x E4 | %33
[M:4/4] E2 DC D4- | D x7 |] %35
V:5
 x8 | x8 | x8 | x8 | x8 | x8 | A,,4 D,2 D,,2 | G,,2 D, x E,^A,,B,,=A,, | G,,4 F,,E,D,C, | %9
 B,,2 C,2 D,2 C,2 ||[M:3/4] B,, x C,2 =C,2 ||[M:4/4] x8 | x8 | x8 | x8 | x8 | x8 | x8 | %18
 x4 [E,,B,,] x [B,,,B,,] x | [E,,B,,] x [G,,B,,] x F,, x [F,,F,] x | B,,2 C,2 D,2 C,2 || %21
[M:3/4] B,, x C,2 =C,2 ||[M:4/4] B,, x7 | x2 E, x D,C,B,,=A,, | ^G,, x C, x D, z C,F, | %25
 G, z D, z E, z B,, z | E, x G, x F, x3 | x8 | x8 | G,, z D,, x E,, x B,, x | G,,4 F,,2- F,, x | %31
 B,,2 C,2 D,2 C,2 |[M:3/4] B,, x C,2 =C,2 |[M:4/4] B,, x7 | x8 |] %35

